packages/base/core/src/svg/system/phone.svg

<?xml version="1.0" encoding="UTF-8"?>
<svg width="24px" height="24px" viewBox="0 0 24 24" version="1.1" xmlns="http://www.w3.org/2000/svg" xmlns:xlink="http://www.w3.org/1999/xlink">
    <!-- Generator: Sketch 54.1 (76490) - https://sketchapp.com -->
    <title>Icons/System/phone</title>
    <desc>Created with Sketch.</desc>
    <g id="Icons/System/phone" stroke="none" stroke-width="1" fill="none" fill-rule="evenodd">
        <path d="M14.6161139,12.8402665 C15.1123116,12.3433692 15.7569827,12.096875 16.4752201,12.096875 C17.2320792,12.096875 17.948204,12.4119796 18.5590096,12.9808915 L21.1147813,15.5402665 C21.6013181,16.0274892 21.903934,16.6768661 21.9952493,17.4257354 C22.0396786,18.1820982 21.7711434,18.939946 21.2552083,19.4566085 L19.8228527,20.8909835 C19.6755741,21.0384698 19.4992467,21.1709018 19.2874838,21.2981123 C18.5008286,21.7636094 17.5915691,22 16.5875617,22 C13.7040173,22 10.0770829,20.0844679 6.97435605,17.0071928 C2.80872298,12.8056759 0.878365816,7.68835061 2.66888161,4.75452469 C2.78045863,4.5144235 2.93912934,4.30548923 3.14108093,4.13777132 L4.5678672,2.71053185 C5.06897657,2.2543356 5.7039204,2 6.39256028,2 C7.14941934,2 7.8655442,2.31510455 8.47634977,2.8840165 L11.0321215,5.4433915 C12.1431386,6.555975 12.2252044,8.32287654 11.1444631,9.3597335 L10.1205253,10.3851149 C10.6032475,11.01406 11.1464924,11.6405999 11.7342566,12.2496415 C12.3074756,12.8236687 12.925217,13.3597868 13.591578,13.8662468 L14.6161139,12.8402665 Z M4.46077955,5.63921018 L4.39872806,5.76011201 C3.17922003,7.66966753 4.77617008,11.9494354 8.38867175,15.5931064 C11.1448769,18.3266581 14.3132401,20 16.5875617,20 C17.2416333,20 17.7986663,19.8551818 18.2631944,19.5803271 C18.3380537,19.5353482 18.3864096,19.4990302 18.4076433,19.4777665 L19.8399989,18.0433915 C19.9405384,17.9427103 20.0105612,17.745095 20.0046707,17.6082378 C19.9728695,17.3534693 19.86251,17.1166514 19.6995719,16.9534835 L17.1704391,14.4198153 C16.9377679,14.2034588 16.6955394,14.096875 16.4752201,14.096875 C16.269314,14.096875 16.1373096,14.1473477 16.0313233,14.2534835 L14.4023699,15.8847335 C14.0596734,16.2279131 13.5201299,16.2757204 13.1224303,15.998145 C12.0994285,15.2841385 11.1678032,14.5128111 10.3071743,13.6507657 C9.42720372,12.7391679 8.64424117,11.7997676 7.98712918,10.8556255 C7.71066833,10.458405 7.75833189,9.920217 8.10030026,9.5777665 L9.74444503,7.93162395 C9.99286009,7.69322388 9.97044597,7.21064085 9.61691204,6.8566085 L7.0877793,4.32294027 C6.85510804,4.10658378 6.61287957,4 6.39256028,4 C6.21055266,4 6.05308689,4.06307511 5.94866346,4.1566085 L4.51630788,5.5909835 L4.46077955,5.63921018 Z" id="Path" fill="#2859C0"></path>
    </g>
</svg>

<svg xmlns="http://www.w3.org/2000/svg" width="24" height="24" viewBox="0 0 24 24">
    <path fill="#0050D7" fill-rule="evenodd" d="M14.616 12.84c.496-.497 1.141-.743 1.86-.743.756 0 1.472.315 2.083.884l2.556 2.56c.486.486.789 1.136.88 1.885.045.756-.224 1.514-.74 2.03l-1.432 1.435c-.147.147-.324.28-.536.407-.786.466-1.695.702-2.7.702-2.883 0-6.51-1.916-9.613-4.993C2.81 12.806.878 7.688 2.67 4.755c.111-.24.27-.45.472-.617L4.568 2.71A2.684 2.684 0 0 1 6.393 2c.756 0 1.473.315 2.083.884l2.556 2.56c1.111 1.112 1.193 2.879.112 3.916l-1.023 1.025a21.935 21.935 0 0 0 1.613 1.865c.573.574 1.191 1.11 1.858 1.616l1.024-1.026zM4.461 5.64l-.062.12c-1.22 1.91.377 6.19 3.99 9.833C11.145 18.327 14.313 20 16.588 20c.654 0 1.21-.145 1.675-.42a.843.843 0 0 0 .145-.102l1.432-1.435c.1-.1.17-.298.165-.435a1.133 1.133 0 0 0-.305-.655l-2.53-2.533c-.232-.217-.474-.323-.695-.323-.206 0-.338.05-.444.156l-1.629 1.632a1 1 0 0 1-1.28.113 20.614 20.614 0 0 1-2.815-2.347 22.9 22.9 0 0 1-2.32-2.795A1 1 0 0 1 8.1 9.578l1.644-1.646c.249-.239.226-.721-.127-1.075l-2.53-2.534C6.856 4.107 6.614 4 6.394 4a.666.666 0 0 0-.444.157L4.516 5.59l-.055.048z"/>
</svg>
